!!!!SEGMENT: pl-kk--kk-i-6--043_anonim--beata-es-virgo-maria.krn
!!!cenid: 16xx:1036
!!!COM: Anonim
!!!COM-rismid: pe30004985
!!!CDT:
!!!CNT:
!!!OTL: Beata es virgo Maria
!!!PDT:
!!!AGN: Sacred
!!!SMS-siglum: PL-Kk
!!!SMS-shelfmark: Kk.I.6
!!!SMS-shelfwork: 043 W
!!!SMS-variant:
!!!SMS-altvar:
!!!NIFC-rismid: 1001136525
!!!URL-scan: http://repozytorium.nifc.pl/skany/pl-kk-nut--i-6
!!!ONB-nifc: UWAGA: C (skan 0066, s. 128-129), T (skan 0178, s. 160-161), B (skan 0286-0287, s. 155-156) Następny utwór: Beata viscera Maria
!!!key:
**kern	**text	**text	**kern	**text	**kern	**text
*part3	*part3	*part3	*part2	*part2	*part1	*part1
*staff3	*staff3	*staff3	*staff2	*staff2	*staff1	*staff1
*Iempty	*	*	*Itenor	*	*Ivox	*
*I"Baſsus.	*	*	*I"Tenor.	*	*I"Cantus.	*
*I'B	*	*	*I'T	*	*I'S	*
*clefF4	*	*	*clefC4	*	*clefC1	*
*k[b-]	*	*	*k[b-]	*	*k[b-]	*
*F:	*	*	*F:	*	*F:	*
*M2/1	*	*	*M2/1	*	*M2/1	*
*met(C|)	*	*	*met(C|)	*	*met(C|)	*
=1-	=1-	=1-	=1-	=1-	=1-	=1-
*	*	*	*	*	*lig	*
!	!	!	!	!	!LO:	!
!LO:TX:a:t=Offertorium	!	!	!LO:TX:a:t=Offertorium	!	!LO:TX:a:t=Offertorium	!
!LO:TX:b:t=Inton.	!	!	!	!	!LO:TX:b:t=Into \nnatio.	!
1F\	Be-	.	4F/	Be-	1a\	Be-
.	.	.	4G/	.	.	.
.	.	.	4A/	.	.	.
.	.	.	4B-\	.	.	.
*	*	*	*	*	*2\right	*
*lig	*	*	*	*	*col	*
1En\	-a-	.	4c\	-a-	2.g\	-a-
.	.	.	4G/	.	.	.
.	.	.	1c\	.	.	.
*	*	*	*	*	*Xlig	*
.	.	.	.	.	4g/	-ta
*	*	*	*	*	*Xcol	*
=2-	=2-	=2-	=2-	=2-	=2-	=2-
*col	*	*	*2\right	*	*	*
*2\right	*	*	*	*	*	*
2.D\	.	.	.	.	1f/	es
!	!	!	!LO:N:acc=#	!	!	!
.	.	.	2Bn\	-ta	.	.
*Xlig	*	*	*	*	*	*
4D/	ta	.	.	.	.	.
*Xcol	*	*	*	*	*	*
1C/	es	.	1c\	es	4c/	Be-
.	.	.	.	.	4d/	.
.	.	.	.	.	4e/	.
!	!	!	!	!	!LO:TX:t=P:problem:kreska pseudotaktowa	!
.	.	.	.	.	4f/	.
=3-	=3-	=3-	=3-	=3-	=3-	=3-
*lig	*	*	*	*	*	*
1c\	Be-	.	0r	.	2.g/	.
.	.	.	.	.	4a\	.
1B-\	.	.	.	.	2.b-\	.
.	.	.	.	.	4g\	.
!	!	!	!	!	!LO:TX:t=P:problem:kreska pseudotaktowa	!
*Xlig	*	*	*	*	*	*
!LO:LB:g=original	!	!	!	!	!	!
=4-	=4-	=4-	=4-	=4-	=4-	=4-
*lig	*	*	*	*	*	*
1A\	-a-	.	1c\	Be-	2cc\	a-
.	.	.	.	.	2a\	-ta
!	!	!	!	!	!LO:LB:g=original	!
*col	*	*	*lig	*	*	*
2.G\	.	.	1B-\	-a-	2b-\	es
.	.	.	.	.	2g\	Vir-
!	!	!	!	!	!LO:TX:t=P:problem:kreska pseudotaktowa	!
*Xlig	*	*	*	*	*	*
4G\	-ta	.	.	.	.	.
*Xcol	*	*	*	*	*	*
=5-	=5-	=5-	=5-	=5-	=5-	=5-
2F,\	es	.	1A\	.	2.a\	-go
1F\	Vir-	.	.	.	.	.
.	.	.	.	.	4a\	Ma-
*	*	*	*Xlig	*	*	*
.	.	.	2.G/	.	2b-\	-ri-
!LO:TX:t=P:problem:kreska pseudotaktowa	!	!	!	!	!	!
2E\	.	.	.	.	2cc\	.
.	.	.	4G/	ta	.	.
=6-	=6-	=6-	=6-	=6-	=6-	=6-
!	!	!	!	!	!LO:TX:t=P:problem:kreska pseudotaktowa	!
1D\,	-go	.	2F/	es	1dd\	.
!	!	!	!LO:LB:g=original	!	!	!
.	.	.	2F/	be-	.	.
*lig	*	*	*	*	*	*
1E\	Ma-	.	1G/	-a-	2g/	-a
.	.	.	.	.	2.cc\	Ma-
=7-	=7-	=7-	=7-	=7-	=7-	=7-
1F\	.	.	1A\	-ta	.	.
*Xlig	*	*	*	*	*	*
.	.	.	.	.	4b-\	.
.	.	.	.	.	4a\	.
!	!	!	!	!	!LO:TX:t=P:problem:kreska pseudotaktowa	!
.	.	.	.	.	4b-\	.
1G\	-ri-	.	1r	.	2cc\	.
!	!	!	!	!	!LO:N:acc=#	!
.	.	.	.	.	2bn\	-ri-
=8-	=8-	=8-	=8-	=8-	=8-	=8-
!LO:TX:t=P:problem:kreska pseudotaktowa	!	!	!	!	!	!
1C/	-a	.	2r	.	1cc\	-a
.	.	.	1c\	Vir-	.	.
0r	.	.	.	.	1r	.
.	.	.	2B-\	.	.	.
=9-	=9-	=9-	=9-	=9-	=9-	=9-
.	.	.	1A\	-go	2r	.
!	!	!	!	!	!LO:TX:t=P:problem:kreska pseudotaktowa	!
.	.	.	.	.	2cc\	Be-
!LO:TX:t=P:problem:kreska pseudotaktowa	!	!	!	!	!	!
1r	.	.	1B-\	Ma-	2.b-\	-a-
.	.	.	.	.	4a\	.
=10-	=10-	=10-	=10-	=10-	=10-	=10-
2r	.	.	1c\	-ri-	2g/	.
2C/	quae	.	.	.	1cc\	.
2.D/	om-	[[por-	1F/	-a	.	.
!	!	!	!	!	!LO:TX:t=P:problem:kreska pseudotaktowa	!
!	!	!	!	!	!LO:N:acc=#	!
.	.	.	.	.	2bn\	ta
4D,/	-ni-	-ta]]	.	.	.	.
=11-	=11-	=11-	=11-	=11-	=11-	=11-
2E\	-a	.	1r	.	1cc\	es
!LO:TX:t=P:problem:kreska pseudotaktowa	!	!	!	!	!	!
2C/	por-	.	.	.	.	.
!	!	!	!	!	!LO:LB:g=original	!
4D\	-ta-	.	2r	.	2b-X\	Ma-
4E\	.	.	.	.	.	.
1F\	.	.	2F/	quae	2a\	.
=12-	=12-	=12-	=12-	=12-	=12-	=12-
.	.	.	2.G/	om-	1g\	ri-
2E\	.	.	.	.	.	.
.	.	.	4G/	-ni-	.	.
2F\	sti	.	2A/	-um	1f/	-a.
!LO:PB:g=original	!	!	!	!	!	!
1F\	Cre-	.	2F/	por-	.	.
=13-	=13-	=13-	=13-	=13-	=13-	=13-
.	.	.	4A\	-ta-	0r	.
.	.	.	4B-\	.	.	.
!LO:TX:t=P:problem:kreska pseudotaktowa	!	!	!	!	!	!
2E\	-a-	.	1c\	.	.	.
1D\	-to-	.	.	.	.	.
!	!	!	!LO:N:acc=#	!	!	!
.	.	.	2Bn\	.	.	.
=14-	=14-	=14-	=14-	=14-	=14-	=14-
2C/	-rem	.	2c\	-sti	1r	.
!	!	!	!LO:LB:g=original	!	!	!
!LO:TX:t=P:problem:kreska pseudotaktowa	!	!	!	!	!	!
2AA/	por-	.	1F/	Cre-	.	.
2.BB-/	-ta-	.	.	.	2r	.
!	!	!	!	!	!LO:TX:t=P:problem:kreska pseudotaktowa	!
.	.	.	2F/	-a-	2f/	quae
4AA/	.	.	.	.	.	.
=15-	=15-	=15-	=15-	=15-	=15-	=15-
1GG/	.	.	1B-\	-to-	2.g/	om-
.	.	.	.	.	4g/	-ni-
!LO:TX:t=P:problem:kreska pseudotaktowa	!	!	!	!	!	!
1FF/	-sti	.	1A\	-rem	2a\	-um
.	.	.	.	.	2f/	por-
=16-	=16-	=16-	=16-	=16-	=16-	=16-
!	!	!	!LO:TX:a:t=4	!	!	!
0r	.	.	00r	.	4a\	-ta-
.	.	.	.	.	4b-\	.
.	.	.	.	.	1cc\	.
!	!	!	!	!	!LO:N:acc=#	!
.	.	.	.	.	2bn\	.
=17-	=17-	=17-	=17-	=17-	=17-	=17-
2r	.	.	.	.	1cc\	-sti
1C/	Cre-	.	.	.	.	.
.	.	.	.	.	1r	.
!LO:TX:t=P:problem:kreska pseudotaktowa	!	!	!	!	!	!
2BB-/	-a-	.	.	.	.	.
=18-	=18-	=18-	=18-	=18-	=18-	=18-
*lig	*	*	*	*	*	*
1AA/	-to-	.	1F/	quae	1cc\	Cre-
1GG/	.	.	2.G/	om-	1b-\	-a-
.	.	.	4G/	-ni-	.	.
*Xlig	*	*	*	*	*	*
!	!	!	!	!	!LO:LB:g=original	!
=19-	=19-	=19-	=19-	=19-	=19-	=19-
2FF/	-rem	.	4A/	-um	2a\	-to-
.	.	.	4F/	.	.	.
!LO:TX:t=P:problem:kreska pseudotaktowa	!	!	!	!	!LO:TX:t=P:problem:kreska pseudotaktowa	!
2F\	quae	.	1f\	por-	2f/	-rem
2.G\	om-	.	.	.	2b-\	por-
!	!	!	!	!	!LO:TX:t=P:problem:kreska pseudotaktowa	!
.	.	.	2e\	-ta-	2g\	-ta-
4G\	-ni-	.	.	.	.	.
=20-	=20-	=20-	=20-	=20-	=20-	=20-
2A\	-um	.	2f\	-sti	2cc\	-sti
!LO:TX:t=P:problem:kreska pseudotaktowa	!	!	!	!	!	!
2F\	por-	.	2.c\	Cre-	1ff\	Cre-
4A\	-ta-	.	.	.	.	.
4B-\	.	.	4d\	.	.	.
!	!	!	!	!	!LO:TX:t=P:problem:kreska pseudotaktowa	!
1c\	.	.	4e\	.	2ee\	-a-
.	.	.	4c\	.	.	.
=21-	=21-	=21-	=21-	=21-	=21-	=21-
!	!	!	!	!	!LO:TX:t=P:problem:kreska pseudotaktowa	!
.	.	.	2f\	.	1dd\	-to-
!LO:N:acc=#	!	!	!	!	!	!
2Bn\	.	.	2f\	-a-	.	.
2c\	-sti	.	4e\	-to-	2cc\	-rem
.	.	.	4d\	.	.	.
1F\	Cre-	.	2c\	.	4a\	Cre-
!	!	!	!	!	!LO:TX:t=P:problem:kreska pseudotaktowa	!
.	.	.	.	.	4a\	-a-
=22-	=22-	=22-	=22-	=22-	=22-	=22-
.	.	.	4B-\	.	2b-\	-to-
.	.	.	4A\	.	.	.
!LO:TX:t=P:problem:kreska pseudotaktowa	!	!	!	!	!LO:TX:t=P:problem:kreska pseudotaktowa	!
2E\	-a-	.	2G/	.	2cc\	.
!	!	!	!LO:LB:g=original	!	!	!
2.D\	-to-	.	2A/	.	2dd\	.
.	.	.	4F/	.	1a\	.
4E\	.	.	4G/	.	.	.
=23-	=23-	=23-	=23-	=23-	=23-	=23-
2F\	.	.	4A/	.	.	.
.	.	.	4D/	.	.	.
!LO:TX:t=P:problem:kreska pseudotaktowa	!	!	!	!	!LO:TX:t=P:problem:kreska pseudotaktowa	!
2G\	.	.	1d\	.	2b-\	.
2A\	.	.	.	.	1a\	.
2AA/	.	.	2c#X\	.	.	.
=24-	=24-	=24-	=24-	=24-	=24-	=24-
2D,/	-rem:	.	1d\	-rem	1a\	-rem
1D\	ge-	.	.	.	.	.
.	.	.	0r	.	2r	.
!LO:TX:t=P:problem:kreska pseudotaktowa	!	!	!	!	!	!
2C#X/	-nu-	.	.	.	1a\	ge-
=25-	=25-	=25-	=25-	=25-	=25-	=25-
2D/	-i-	.	.	.	.	.
!	!	!	!	!	!LO:TX:t=P:problem:kreska pseudotaktowa	!
2AA/	-sti	.	.	.	2a\	-nu-
2F\	qui	.	2r	.	2a\	-i-
!LO:TX:t=P:problem:kreska pseudotaktowa	!	!	!	!	!	!
2D\	Te	.	1A\	ge-	2dd\	-sti
=26-	=26-	=26-	=26-	=26-	=26-	=26-
!	!	!	!	!	!LO:N:acc=#	!
1E\	fe-	.	.	.	2bn\	qui
.	.	.	2G#X/	-nu-	2b\	Te
!	!	!	!	!	!LO:LB:g=original	!
2AA/	-cit	.	2A/	-i-	2.cc\	fe-
1A\	qui	.	2E/	-sti	.	.
.	.	.	.	.	4b\	.
=27-	=27-	=27-	=27-	=27-	=27-	=27-
.	.	.	2c\	qui	2a\	.
!LO:TX:t=P:problem:kreska pseudotaktowa	!	!	!	!	!	!
2F\	Te	.	2A\	Te	2a\	-cit
*lig	*	*	*	*	*	*
!	!	!	!LO:N:acc=#	!	!	!
1G\	fe-	.	1Bn\	fe-	0r	.
=28-	=28-	=28-	=28-	=28-	=28-	=28-
1A\	.	.	0A\	-cit	.	.
*Xlig	*	*	*	*	*	*
!LO:TX:t=P:problem:kreska pseudotaktowa	!	!	!	!	!	!
0D\	-xit	.	.	.	1r	.
=29-	=29-	=29-	=29-	=29-	=29-	=29-
.	.	.	00r	.	2r	.
.	.	.	.	.	1a\	ge-
0r	.	.	.	.	.	.
!	!	!	!	!	!LO:TX:t=P:problem:kreska pseudotaktowa	!
.	.	.	.	.	2g#X\	-nu-
=30-	=30-	=30-	=30-	=30-	=30-	=30-
.	.	.	.	.	2a\	-i-
.	.	.	.	.	2e/	-sti
2r	.	.	.	.	2cc\	qui
2A\	et	.	.	.	2a\	Te
!LO:LB:g=original	!	!	!	!	!	!
=31-	=31-	=31-	=31-	=31-	=31-	=31-
!	!	!	!	!	!LO:TX:t=P:problem:kreska pseudotaktowa	!
!	!	!	!	!	!LO:N:acc=#	!
2A\	in	.	2r	.	1bn\	fe-
2G#X\	ae-	.	2e\	et	.	.
2A\	-ter-	.	2e\	in	2e/	-cit
!LO:TX:t=P:problem:kreska pseudotaktowa	!	!	!	!	!	!
2E\	.	.	2e\	ae-	2ee\	et
!	!	!	!LO:LB:g=original	!	!	!
=32-	=32-	=32-	=32-	=32-	=32-	=32-
*lig	*	*	*	*	*	*
1F\	.	.	2c\	-ter-	2ee\	in
.	.	.	2d\	.	2dd\	ae-
!	!	!	!LO:N:acc=#	!	!	!
1E\	.	.	1Bn\	.	2ee\	-ter-
.	.	.	.	.	2b-\	.
!	!	!	!	!	!LO:TX:t=P:problem:kreska pseudotaktowa	!
*Xlig	*	*	*	*	*	*
=33-	=33-	=33-	=33-	=33-	=33-	=33-
!LO:TX:t=P:problem:kreska pseudotaktowa	!	!	!	!	!	!
1AA/	-num	.	2A/	-num	1cc\	.
.	.	.	2.c\	per-	.	.
*lig	*	*	*	*	*	*
1C/	per-	.	.	.	2g/	.
!	!	!	!LO:N:acc=#	!	!	!
.	.	.	4Bn\	-ma-	.	.
.	.	.	2A\	-nes	2cc\	.
=34-	=34-	=34-	=34-	=34-	=34-	=34-
1D\	.	.	1d\	Vir-	1a\	-num
!	!	!	!	!	!LO:PB:g=original	!
*Xlig	*	*	*	*	*	*
!	!	!	!LO:N:acc=#	!	!	!
1E\	.	.	2Bn\	-go	1g\	per-
.	.	.	2.c\	per-	.	.
=35-	=35-	=35-	=35-	=35-	=35-	=35-
2.F\	.	.	.	.	2.a\	.
!	!	!	!LO:N:acc=#	!	!	!
.	.	.	4Bn\	-ma-	.	.
.	.	.	2A\	-nes	.	.
!LO:TX:t=P:problem:kreska pseudotaktowa	!	!	!	!	!LO:TX:t=P:problem:kreska pseudotaktowa	!
4E\	-ma-	.	.	.	4a\	-ma-
2D,/	-nes	.	2.d\	/per-	2a\	-nes
!	!	!	!	!	!LO:N:acc=#	!
2.G\	/per-	.	.	.	1bn\	per-
.	.	.	4c\	-ma-	.	.
=36-	=36-	=36-	=36-	=36-	=36-	=36-
!	!	!	!LO:N:acc=#	!	!	!
.	.	.	2Bn\	-nes	.	.
4F\	-ma-	.	.	.	.	.
!LO:TX:t=P:problem:kreska pseudotaktowa	!	!	!	!	!	!
2E\	-nes	.	2.e\	per-	2.cc\	.
2.A\	per-	.	.	.	.	.
.	.	.	4d\	-ma-	4cc\	-ma-
!	!	!	!	!	!LO:TX:t=P:problem:kreska pseudotaktowa	!
.	.	.	2c\	-nes/	2cc\	-nes
4G\	-ma-	.	.	.	.	.
=37-	=37-	=37-	=37-	=37-	=37-	=37-
1F\	-nes/	.	1A\	Vir-	2r	.
.	.	.	.	.	2cc\	et
!LO:TX:t=P:problem:kreska pseudotaktowa	!	!	!	!	!	!
1G\	Vir-	.	1d\	.	2cc\	in
!	!	!	!LO:PB:g=original	!	!	!
!	!	!	!	!	!LO:TX:t=P:problem:kreska pseudotaktowa	!
!	!	!	!	!	!LO:N:acc=#	!
.	.	.	.	.	2bn\	ae-
=38-	=38-	=38-	=38-	=38-	=38-	=38-
2C,/	-go	.	1c\	-go	2cc\	-ter-
2F\	et	.	.	.	2a\	.
!	!	!	!	!	!LO:TX:t=P:problem:kreska pseudotaktowa	!
2F\	in	.	2r	.	1g\	.
!LO:TX:t=P:problem:kreska pseudotaktowa	!	!	!	!	!	!
2E\	ae-	.	2c\	et	.	.
=39-	=39-	=39-	=39-	=39-	=39-	=39-
2F\	-ter-	.	2c\	in	2f/	num
2C/	.	.	2c\	ae-	2.cc\	per-
!LO:LB:g=original	!	!	!	!	!	!
1D\	.	.	(2A/	-ter-	.	.
.	.	.	.	.	4cc\	-ma-
!	!	!	!	!	!LO:TX:t=P:problem:kreska pseudotaktowa	!
!	!	!	!LO:N:acc=#	!	!LO:N:acc=#	!
.	.	.	2Bn\)	.	2bn\	-nes
=40-	=40-	=40-	=40-	=40-	=40-	=40-
1C/,	-num	.	2G/	-num	1cc\	Vir-
.	.	.	2c\	in	.	.
2D/	et	.	2A\	ae-	2f/	.
1D\	in	.	2d\	-ter-	2a\	.
=41-	=41-	=41-	=41-	=41-	=41-	=41-
!	!	!	!	!	!LO:TX:t=P:problem:kreska pseudotaktowa	!
.	.	.	2G/	-nu(m)	1g\	.
!LO:TX:t=P:problem:kreska pseudotaktowa	!	!	!	!	!	!
2C#X/	ae-	.	2A/	et	.	.
2D/	-ter-	.	2A/	in	2f/	-go
!	!	!	!	!	!LO:LB:g=original	!
!	!	!	!	!	!LO:TX:t=P:problem:kreska pseudotaktowa	!
2AA/	.	.	2A/	ae-	2a\	et
=42-	=42-	=42-	=42-	=42-	=42-	=42-
*lig	*	*	*	*	*	*
1BB-/	.	.	(2F/	-ter-	2a\	in
!	!	!	!	!	!LO:TX:t=P:problem:kreska pseudotaktowa	!
.	.	.	2G/)	.	2g\	ae-
1AA/	.	.	1E/	.	2a\	-ter-
.	.	.	.	.	2e/	.
!	!	!	!	!	!LO:TX:t=P:problem:kreska pseudotaktowa	!
*Xlig	*	*	*	*	*	*
=43-	=43-	=43-	=43-	=43-	=43-	=43-
1D\,	-num	.	2D/	-num	2f/	-num
.	.	.	2.A/	per-	2.f/	per-
*lig	*	*	*	*	*	*
1FF/	per-	.	.	.	.	.
.	.	.	4G/	-ma-	4e/	-ma-
!	!	!	!	!	!LO:TX:t=P:problem:kreska pseudotaktowa	!
.	.	.	2F/	-nes	2d/	-nes
=44-	=44-	=44-	=44-	=44-	=44-	=44-
1GG/	.	.	2B-\	Vir-	2.g/	/per-
!	!	!	!LO:LB:g=original	!	!	!
.	.	.	2G/	.	.	.
.	.	.	.	.	4f/	-ma-
*Xlig	*	*	*	*	*	*
1AA/	.	.	2c\	.	2e/	-nes/
.	.	.	2c\	-go	4a\	Vir-
!	!	!	!	!	!LO:TX:t=P:problem:kreska pseudotaktowa	!
.	.	.	.	.	4a\	-go
=45-	=45-	=45-	=45-	=45-	=45-	=45-
*	*	*	*	*	*lig	*
2.BB-/	.	.	2r	.	1f/	per-
.	.	.	2.B-X\	per-	.	.
!LO:TX:t=P:problem:kreska pseudotaktowa	!	!	!	!	!	!
4AA/	-ma-	.	.	.	.	.
2GG,/	-nes	.	.	.	1.g\	.
.	.	.	4A\	-ma-	.	.
2.C/	/per-	.	2G\	-nes	.	.
*	*	*	*	*	*Xlig	*
=46-	=46-	=46-	=46-	=46-	=46-	=46-
.	.	.	2.c\	/per-	.	.
4BB-/	-ma-	.	.	.	.	.
!LO:TX:t=P:problem:kreska pseudotaktowa	!	!	!	!	!	!
2AA/	-nes	.	.	.	2.a\	.
.	.	.	4B-\	-ma-	.	.
2.D/	per-	.	2A\	-nes	.	.
.	.	.	.	.	4a\	-ma-
!	!	!	!	!	!LO:TX:t=P:problem:kreska pseudotaktowa	!
.	.	.	2.d\	per-	2a\	-nes
4C/	-ma-	.	.	.	.	.
=47-	=47-	=47-	=47-	=47-	=47-	=47-
1BB-/	-nes/	.	.	.	4b-\	Vir-
.	.	.	4c\	-ma-	4cc\	.
.	.	.	2B-\	-nes/	2dd\	.
1C/	Vir-	.	2A/	Vir-	1cc\	.
.	.	.	2G/	.	.	.
=48-	=48-	=48-	=48-	=48-	=48-	=48-
2FF/	-go	.	4F/	.	1a\	-go
.	.	.	4G/	.	.	.
!LO:LB:g=original	!	!	!	!	!	!
!LO:TX:t=P:problem:kreska pseudotaktowa	!	!	!	!	!	!
2F\	et	.	2A/	.	.	.
!	!	!	!	!	!LO:LB:g=original	!
2F\	in	.	1G/	.	2r	.
!	!	!	!	!	!LO:TX:t=P:problem:kreska pseudotaktowa	!
2E\	ae-	.	.	.	2cc\	et
=49-	=49-	=49-	=49-	=49-	=49-	=49-
2F\	-ter-	.	2A/	-go	2cc\	in
!LO:TX:t=P:problem:kreska pseudotaktowa	!	!	!	!	!	!
2C/	.	.	2r	.	2cc\	ae-
1D\	.	.	2r	.	2a\	-ter-
!	!	!	!	!	!LO:TX:t=P:problem:kreska pseudotaktowa	!
.	.	.	2f\	et	2dd\	.
=50-	=50-	=50-	=50-	=50-	=50-	=50-
1C/	-num	.	2f\	in	2g\	-num
.	.	.	2e\	ae-	2g\	per-
*lig	*	*	*	*	*lig	*
1F\	per-	.	4f\	-ter-	1a\	.
.	.	.	4e\	.	.	.
!	!	!	!LO:LB:g=original	!	!	!
.	.	.	4d\	.	.	.
.	.	.	4c\	.	.	.
=51-	=51-	=51-	=51-	=51-	=51-	=51-
1G\	.	.	1B-\	.	1b-\	.
*Xlig	*	*	*	*	*Xlig	*
2A\	.	.	2A\	num	4cc\	.
.	.	.	.	.	4b-\	.
!LO:TX:t=P:problem:kreska pseudotaktowa	!	!	!	!	!	!
2AA/	.	.	2c\	per-	4a\	.
.	.	.	.	.	4g\	.
=52-	=52-	=52-	=52-	=52-	=52-	=52-
2.BB-/	.	.	1d\	.	2f/	.
.	.	.	.	.	2.b-\	.
!LO:TX:t=P:problem:kreska pseudotaktowa	!	!	!	!	!	!
4AA/	-ma-	.	.	.	.	.
2GG/	-nes	.	2.en\	.	.	.
.	.	.	.	.	4a\	-ma-
2.C/	/per-	.	.	.	2g/	-nes
.	.	.	4d\	-ma-	.	.
=53-	=53-	=53-	=53-	=53-	=53-	=53-
.	.	.	2c\	-nes	2.cc\	/per-
4BB-/	-ma-	.	.	.	.	.
!LO:TX:t=P:problem:kreska pseudotaktowa	!	!	!	!	!	!
2AA/	-nes/	.	2.f\	per-	.	.
!	!	!	!	!	!LO:TX:t=P:problem:kreska pseudotaktowa	!
.	.	.	.	.	4b-\	-ma-
2.D/	per-	.	.	.	2a\	-nes
.	.	.	4e\	-ma-	.	.
.	.	.	1d\	-nes	2.dd\	per-
!LO:TX:t=P:problem:kreska pseudotaktowa	!	!	!	!	!	!
4C/	-ma-	.	.	.	.	.
=54-	=54-	=54-	=54-	=54-	=54-	=54-
1BB-/	-nes	.	.	.	.	.
.	.	.	.	.	4dd\	-ma-
!	!	!	!	!	!LO:TX:t=P:problem:kreska pseudotaktowa	!
.	.	.	1G/	Vir-	2dd\	-nes/
0C/	Vir-	.	.	.	2cc\	Vir-
.	.	.	2A/	.	2a\	.
=55-	=55-	=55-	=55-	=55-	=55-	=55-
.	.	.	1c\	.	1g\	.
0FF/;;<	-go.	.	0A\;	-go	0a\;	-go
==	==	==	==	==	==	==
*-	*-	*-	*-	*-	*-	*-
!!!system-decoration: [(s1,s2,s3)]
!!!EED: Leszek Kubiak
!!!EST: 2021-03-24
!!!AIN: 1 empty 1 tenor 1 vox
!!!ENC: Krzysztof Stępień
!!!END: 2021-03-09
